X: 32416
T: Piper's Inn, The
R: jig
M: 6/8
K: Fmajor
|:F (3FFF GFD|CFA cag|fcc dcA|cAF GFD|
F (3FFF GFD|CFA c2f|dcA cAF|1 GFD F2G:|2 GFD FAc||
|:f3 edc|def cAF|CFA CFA|cAF G (3A=Bc|
[1 fef edc|def cAF|B (3BBB GcB|AFE FAc:|
[2 fef gfg|afd cAG|AFD CFA|GFD F2 G||

